X: 36632
T: Shandon Bells
R: jig
M: 6/8
K: Dmajor
A>FD DFA|d>ed cBA|BGE EF/G/A|B2 A Bcd|
AFD DFA|ded cBA|BB/c/d ecA|ded:|
f2 d dcd|faa afd|cAA eAA|cAc ee/f/g|
fdd dcd|f2 a afd|Bcd ecA|ded:|

